X:155
T: Oscar and Malvina (set for the pipes)
N: O'Farrell's Pocket Companion v.2 (Sky ed. p.79-80)
M: C
L: 1/8
Q: 110 % "very slow"
K: G
G>AB>A GE A2|G>AB>A GE G/d/B/A/|G>AB>A GE A2|G>ABA Bd e2|
edgd c/B/A/G/ A2|G>AB>A GE G/B/c/d/|edgd c/B/A/G/ A2|
G>ABA FD G2 ||
P:2
d2 Bd B/A/G Bd|Bd B/A/G cAAd|Bd B/A/G Bd d2|Bdce dF F2 :|
P:3
g2 dB {f}g2 dB|g2 dB cAA2|g2 dB {f}g2 dc|Bdce dG G2 :|
P:4
a2 fd gd B2|a2 fd gd B2|gb/g/ fa/f/ gb/g/ fa/f/|1 g2g2g4 :|
[2 g2g2g3a ||
P:5
[K:D] d>ede f<aaf|e>def B>cBA|d>ede f<aaf|1 e>dea d>e d2 :|
[2 e>dea d>e d>f||
P:6
g>fgb f>efa|e>gB>e c>deA|B>c e/d/c/B/ Adfa|1 e>dea d>ed2 :|
[2 e>dea d>e dc/d/||
P:7
edcB A>BAc|B>ABe A>BAc/d/|edcB A>BAc|B>ABe A>BAc|B>ABe A4-|
A8-|A8|"ad libitum" B A/G/F/E/ D/E/F/G/ A/B/c/Hd|
B/c/d/e/f/Hg/ b a/g/f/a/ g/f/g/e/||
P:8
[K:G]
d2 Bd B/A/G Bd|Bd B/A/G cAAd|Bd B/A/G Bd d2|Bdce dG G2 :|
P:9
g2 dB {f}g2 dB|g2 dB cAA2|g2 dB {f}g2 dc|Bdce dG G2 :|
P:10
a2 fd gd B2|a2 fd gd B2|gb/g/ fa/f/ gb/g/ fa/f/|g2g2g4 :|
